X: 5566
T: Bus Stop, The
R: reel
M: 4/4
K: Adorian
A(A|A2) eA dcBc|ABcA BAGB|A2 eA dcBA|(3Bcd ef gfed|
A2 eA dcBc|ABcA BAGD|((4DEFG A)B cBAG|ABAG A2:|
|:ee|a2 ae gedc|Acdf e2 ee|a2 ae gedc|ABcA BAGB|
Aaae gedc|Acdf e2 AA|cBAF EFGB|A2 AG A2:|

